X:1
T:Sweet Fern
M:3/4
L:1/4
K:F
 F| F2 F| F G A| c2 d| c2 c| c G A| B B3/2 E/2| F3-| F2 F| F2 F| F F c|\
 c c d/2d/2| c c c/2c/2| c G A| B B E| F3-| F2c/2-c/2| d d d| B2 d/2d/2|\
 c2 c/2c/2| A2 A| G2| G| e e d| c3-| c2 c| c3/2 c/2 c| A A A| c c d|\
 c2 c| c G3/2 A/2| B E3/2 E/2| F3-| F2| c| A3-| A2 A| F3-| F2 A| c G c/2c/2|\
 e e d| c3-| c2 c| A3-| A2| A| F3-| F2 A| c G3/2 A/2| B E3/2 E/2| F3-|\
 F2||

